src/images/getyourguide-white.svg

<?xml version="1.0" encoding="UTF-8"?>
<svg width="86px" height="68px" viewBox="0 0 86 68" version="1.1" xmlns="http://www.w3.org/2000/svg" xmlns:xlink="http://www.w3.org/1999/xlink">
    <!-- Generator: Sketch 55.2 (78181) - https://sketchapp.com -->
    <title>GYG_Expressive_Logo_01_White_RGB</title>
    <desc>Created with Sketch.</desc>
    <g id="Page-1" stroke="none" stroke-width="1" fill="none" fill-rule="evenodd">
        <g id="07.-Customers" transform="translate(-890.000000, -1723.000000)" fill="#FFFFFF" fill-rule="nonzero">
            <g id="GYG_Expressive_Logo_01_White_RGB" transform="translate(890.000000, 1723.000000)">
                <path d="M19.8350975,30.6119298 C19.8350975,29.2519298 20.8891365,28.2498246 22.2066852,28.2498246 C23.524234,28.2498246 24.578273,29.2757895 24.578273,30.6119298 C24.578273,31.9719298 23.524234,32.9740351 22.2066852,32.9740351 C20.8891365,32.9740351 19.8350975,31.9480702 19.8350975,30.6119298 Z M24.0512535,26.3649123 C24.0512535,27.7249123 25.1052925,28.7270175 26.4228412,28.7270175 C27.74039,28.7270175 28.794429,27.7010526 28.794429,26.3649123 C28.794429,25.0049123 27.74039,24.002807 26.4228412,24.002807 C25.1052925,24.002807 24.0512535,25.0049123 24.0512535,26.3649123 Z M29.8245125,23.4778947 L29.8245125,27.7249123 C33.1543175,27.7249123 35.7654596,30.4210526 35.7654596,33.9522807 C35.7654596,37.4835088 33.1303621,40.1796491 29.8245125,40.1796491 C26.4947075,40.1796491 23.8835655,37.4835088 23.8835655,33.9522807 L19.2362117,33.9522807 C19.2362117,39.8217544 23.9314763,44.4266667 29.8245125,44.4266667 C35.7175487,44.4266667 40.4128134,39.8217544 40.4128134,33.9522807 C40.4128134,28.082807 35.7175487,23.4778947 29.8245125,23.4778947 Z M77.6155989,63.2996491 L77.6155989,59.2673684 L85.113649,59.2673684 L85.113649,55.2350877 L77.6155989,55.2350877 L77.6155989,51.274386 L85.8802228,51.274386 L85.8802228,47.2182456 L73.0640669,47.2182456 L73.0640669,67.3319298 L86,67.3319298 L86,63.2757895 L77.6155989,63.2757895 L77.6155989,63.2996491 Z M70.3571031,57.2870175 C70.3571031,63.0610526 65.9253482,67.3319298 59.6729805,67.3319298 L53.0133705,67.3319298 L53.0133705,47.194386 L59.6729805,47.194386 C65.9253482,47.194386 70.3571031,51.5129825 70.3571031,57.2870175 Z M65.7097493,57.2870175 C65.7097493,53.8512281 63.4100279,51.2505263 60.032312,51.2505263 L57.5409471,51.2505263 L57.5409471,63.2996491 L60.032312,63.2996491 C63.4100279,63.2996491 65.7097493,60.722807 65.7097493,57.2870175 Z M35.3103064,59.6014035 C35.3103064,61.9157895 33.6573816,63.6336842 31.3816156,63.6336842 C29.1058496,63.6336842 27.4529248,61.9157895 27.4529248,59.6014035 L27.4529248,47.2421053 L22.9493036,47.2421053 L22.9493036,59.5298246 C22.9493036,64.2778947 26.518663,67.7614035 31.3816156,67.7614035 C36.2445682,67.7614035 39.8139276,64.2540351 39.8139276,59.5298246 L39.8139276,47.2421053 L35.3103064,47.2421053 L35.3103064,59.6014035 L35.3103064,59.6014035 Z M9.10306407,60.0070175 L13.5827298,60.0070175 C13.1754875,62.082807 11.3309192,63.6814035 9.1270195,63.6814035 C6.65961003,63.6814035 4.67130919,61.7010526 4.67130919,58.8140351 L4.67130919,55.8315789 C4.67130919,52.9922807 6.80334262,50.8926316 9.79777159,50.8926316 C12.1214485,50.8926316 14.205571,52.157193 14.8763231,53.994386 L19.0685237,52.5389474 C17.918663,49.0077193 14.1337047,46.8126316 9.79777159,46.8126316 C4.31197772,46.8126316 0.239554318,50.4870175 0.239554318,55.8315789 L0.239554318,58.8140351 C0.263509749,63.9438596 4.0724234,67.7614035 8.76768802,67.7614035 C11.6902507,67.7614035 14.2774373,66.2821053 15.7866295,63.9915789 L15.7866295,67.3557895 L19.7632312,67.3557895 L19.7632312,56.165614 L9.10306407,56.165614 L9.10306407,60.0070175 Z M60.0562674,36.1712281 L60.0562674,23.8835088 L55.5526462,23.8835088 L55.5526462,36.242807 C55.5526462,38.557193 53.8997214,40.2750877 51.6239554,40.2750877 C49.3481894,40.2750877 47.6952646,38.557193 47.6952646,36.242807 L47.6952646,23.8835088 L43.1916435,23.8835088 L43.1916435,36.1712281 C43.1916435,40.9192982 46.7610028,44.402807 51.6239554,44.402807 C56.4869081,44.402807 60.0562674,40.9192982 60.0562674,36.1712281 Z M7.73760446,43.997193 L12.2651811,43.997193 L12.2651811,36.3621053 L19.8590529,23.8835088 L14.7325905,23.8835088 L9.94150418,32.1150877 L5.22228412,23.8835088 L0.119777159,23.8835088 L7.71364903,36.4098246 L7.71364903,43.997193 L7.73760446,43.997193 Z M53.2289694,0.524912281 L37.897493,0.524912281 L37.897493,4.58105263 L53.2289694,4.58105263 L53.2289694,0.524912281 Z M35.9571031,16.5824561 L27.5487465,16.5824561 L27.5487465,12.5501754 L35.0467967,12.5501754 L35.0467967,8.51789474 L27.5487465,8.51789474 L27.5487465,4.55719298 L35.8133705,4.55719298 L35.8133705,0.501052632 L22.9972145,0.501052632 L22.9972145,20.6147368 L35.9331476,20.6147368 L35.9331476,16.5824561 L35.9571031,16.5824561 Z M8.76768802,21.0680702 C11.6902507,21.0680702 14.2774373,19.5887719 15.7866295,17.2982456 L15.7866295,20.6624561 L19.7632312,20.6624561 L19.7632312,9.4722807 L9.10306407,9.4722807 L9.10306407,13.3375439 L13.5827298,13.3375439 C13.1754875,15.4133333 11.3309192,17.0119298 9.1270195,17.0119298 C6.65961003,17.0119298 4.67130919,15.0315789 4.67130919,12.1445614 L4.67130919,9.16210526 C4.67130919,6.32280702 6.80334262,4.22315789 9.79777159,4.22315789 C12.1214485,4.22315789 14.205571,5.4877193 14.8763231,7.32491228 L19.0685237,5.86947368 C17.918663,2.33824561 14.1337047,0.143157895 9.79777159,0.143157895 C4.31197772,0.143157895 0.239554318,3.81754386 0.239554318,9.16210526 L0.239554318,12.1445614 C0.263509749,17.2505263 4.0724234,21.0680702 8.76768802,21.0680702 Z M70.3810585,38.9150877 L68.0334262,36.4575439 L70.3571031,33.9522807 L68.0094708,31.4947368 L70.3331476,28.9894737 L67.9855153,26.5319298 L70.5727019,23.8835088 L65.8774373,23.8835088 L63.3381616,26.5557895 L65.6857939,29.0133333 L63.362117,31.5185965 L65.7097493,33.9761404 L63.3860724,36.4814035 L65.7337047,38.9389474 L63.4100279,41.4442105 L65.9013928,44.0210526 L70.6206128,44.0210526 L68.081337,41.4203509 L70.3810585,38.9150877 Z M48.3660167,56.6905263 C49.0367688,56.0940351 50.1626741,55.0919298 50.1626741,53.2308772 C50.1626741,51.3936842 49.0367688,50.3677193 48.3660167,49.7712281 C48.3420613,49.7473684 48.3181058,49.7235088 48.2941504,49.6996491 C47.9587744,49.3417544 47.9108635,48.8407018 47.8869081,48.6021053 L47.8869081,47.194386 L43.335376,47.194386 L43.335376,49.0792982 L43.335376,49.0792982 C43.335376,49.1031579 43.335376,49.1270175 43.335376,49.1508772 C43.335376,50.9880702 44.4612813,52.0140351 45.1320334,52.6105263 C45.6111421,53.04 45.6111421,53.0638596 45.6111421,53.2308772 C45.6111421,53.3978947 45.6111421,53.4217544 45.1320334,53.8512281 C44.4852368,54.4238596 43.4311978,55.3782456 43.3593315,57.0961404 L43.3593315,57.0961404 C43.3593315,57.12 43.3593315,57.1677193 43.3593315,57.1915789 C43.3593315,57.2154386 43.3593315,57.2154386 43.3593315,57.2392982 C43.3593315,57.2631579 43.3593315,57.2631579 43.3593315,57.2870175 C43.3593315,57.3108772 43.3593315,57.3585965 43.3593315,57.3824561 L43.3593315,57.3824561 C43.4311978,59.1003509 44.5091922,60.0547368 45.1320334,60.6273684 C45.6111421,61.0568421 45.6111421,61.0807018 45.6111421,61.2477193 C45.6111421,61.4147368 45.6111421,61.4385965 45.1320334,61.8680702 C44.4612813,62.4645614 43.335376,63.4666667 43.335376,65.3277193 C43.335376,65.3515789 43.335376,65.3754386 43.335376,65.3992982 L43.335376,65.3992982 L43.335376,67.2842105 L47.8869081,67.2842105 L47.8869081,65.8764912 C47.8869081,65.6378947 47.9587744,65.1368421 48.2941504,64.7789474 C48.3181058,64.7550877 48.3420613,64.7312281 48.3660167,64.7073684 C49.0367688,64.1108772 50.1626741,63.1087719 50.1626741,61.2477193 C50.1626741,59.4105263 49.0367688,58.3845614 48.3660167,57.7880702 C47.9348189,57.4063158 47.8869081,57.3347368 47.8869081,57.2154386 C47.9108635,57.1438596 47.9587744,57.0722807 48.3660167,56.6905263 Z M43.2874652,20.6385965 L47.8150418,20.6385965 L47.8150418,16.8926316 L43.2874652,16.8926316 L43.2874652,20.6385965 Z M47.8389972,11.5480702 L43.3114206,11.5480702 L43.3114206,15.2940351 L47.8389972,15.2940351 L47.8389972,11.5480702 Z M47.8389972,6.17964912 L43.3114206,6.17964912 L43.3114206,9.92561404 L47.8389972,9.92561404 L47.8389972,6.17964912 Z M82.1671309,43.997193 L76.6573816,36.314386 C79.34039,35.4792982 81.2089136,33.1410526 81.2089136,30.2778947 C81.2089136,26.6512281 78.1905292,23.8835088 74.3816156,23.8835088 L71.7225627,23.8835088 L71.7225627,27.9635088 L74.2139276,27.9635088 C75.5314763,27.9635088 76.5615599,29.0133333 76.5615599,30.397193 C76.5615599,31.7810526 75.5314763,32.8308772 74.2139276,32.8308772 L71.7225627,32.8308772 L71.7225627,36.6961404 L76.6573816,44.0210526 L82.1671309,44.0210526 L82.1671309,43.997193 Z" id="Logo"></path>
            </g>
        </g>
    </g>
</svg>

<svg width="86" height="68" xmlns="http://www.w3.org/2000/svg">
  <path d="M19.835 30.612c0-1.36 1.054-2.362 2.372-2.362 1.317 0 2.371 1.026 2.371 2.362 0 1.36-1.054 2.362-2.371 2.362-1.318 0-2.372-1.026-2.372-2.362zm4.216-4.247c0 1.36 1.054 2.362 2.372 2.362 1.317 0 2.371-1.026 2.371-2.362 0-1.36-1.054-2.362-2.371-2.362-1.318 0-2.372 1.002-2.372 2.362zm5.774-2.887v4.247c3.33 0 5.94 2.696 5.94 6.227 0 3.532-2.635 6.228-5.94 6.228-3.33 0-5.941-2.696-5.941-6.228h-4.648c0 5.87 4.695 10.475 10.589 10.475 5.893 0 10.588-4.605 10.588-10.475 0-5.87-4.695-10.474-10.588-10.474zM77.615 63.3v-4.033h7.499v-4.032h-7.498v-3.96h8.264v-4.057H73.064v20.114H86v-4.056h-8.384v.024zm-7.258-6.013c0 5.774-4.432 10.045-10.684 10.045h-6.66V47.194h6.66c6.252 0 10.684 4.319 10.684 10.093zm-4.647 0c0-3.436-2.3-6.036-5.678-6.036h-2.491V63.3h2.491c3.378 0 5.678-2.577 5.678-6.013zm-30.4 2.314c0 2.315-1.653 4.033-3.928 4.033-2.276 0-3.93-1.718-3.93-4.033V47.242H22.95V59.53c0 4.748 3.57 8.231 8.433 8.231 4.863 0 8.432-3.507 8.432-8.231V47.242H35.31v12.36zm-26.207.406h4.48c-.408 2.076-2.252 3.674-4.456 3.674-2.467 0-4.456-1.98-4.456-4.867v-2.982c0-2.84 2.132-4.94 5.127-4.94 2.323 0 4.408 1.265 5.078 3.102l4.193-1.455c-1.15-3.531-4.935-5.726-9.271-5.726-5.486 0-9.558 3.674-9.558 9.019v2.982c.024 5.13 3.832 8.947 8.528 8.947 2.922 0 5.51-1.479 7.019-3.77v3.365h3.976v-11.19H9.103v3.841zm50.953-23.836V23.884h-4.503v12.359c0 2.314-1.653 4.032-3.929 4.032s-3.929-1.718-3.929-4.032v-12.36h-4.503v12.288c0 4.748 3.569 8.232 8.432 8.232s8.432-3.484 8.432-8.232zM7.738 43.997h4.527v-7.635l7.594-12.478h-5.126l-4.791 8.231-4.72-8.231H.12L7.714 36.41v7.587h.024zM53.229.525H37.897V4.58H53.23V.525zM35.957 16.582H27.55V12.55h7.498V8.518h-7.498v-3.96h8.264V.5H22.997v20.114h12.936v-4.033h.024zm-27.19 4.486c2.923 0 5.51-1.48 7.02-3.77v3.364h3.976V9.472H9.103v3.866h4.48c-.408 2.075-2.252 3.674-4.456 3.674-2.467 0-4.456-1.98-4.456-4.867V9.162c0-2.84 2.132-4.939 5.127-4.939 2.323 0 4.408 1.265 5.078 3.102l4.193-1.456C17.919 2.34 14.134.143 9.798.143 4.312.143.24 3.818.24 9.163v2.982c.024 5.106 3.832 8.923 8.528 8.923zm61.614 17.847l-2.348-2.457 2.324-2.506-2.348-2.457 2.324-2.506-2.347-2.457 2.587-2.648h-4.696l-2.539 2.672 2.348 2.457-2.324 2.506 2.348 2.457-2.324 2.505 2.348 2.458-2.324 2.505 2.491 2.577h4.72l-2.54-2.6 2.3-2.506zM48.366 56.691c.67-.597 1.797-1.6 1.797-3.46 0-1.837-1.126-2.863-1.797-3.46l-.072-.071c-.335-.358-.383-.86-.407-1.098v-1.408h-4.552v1.957c0 1.837 1.126 2.863 1.797 3.46.48.429.48.453.48.62 0 .167 0 .19-.48.62-.647.573-1.7 1.527-1.773 3.245V57.382c.072 1.718 1.15 2.673 1.773 3.245.48.43.48.454.48.62 0 .168 0 .192-.48.621-.67.597-1.797 1.599-1.797 3.46v1.956h4.552v-1.408c0-.238.072-.74.407-1.097l.072-.072c.67-.596 1.797-1.598 1.797-3.46 0-1.836-1.126-2.862-1.797-3.459-.431-.382-.48-.453-.48-.573.025-.071.073-.143.48-.524zm-5.079-36.052h4.528v-3.746h-4.528v3.746zm4.552-9.09h-4.528v3.745h4.528v-3.746zm0-5.37h-4.528v3.747h4.528V6.18zm34.328 37.818l-5.51-7.683c2.683-.835 4.552-3.173 4.552-6.036 0-3.627-3.018-6.394-6.827-6.394h-2.66v4.08h2.492c1.317 0 2.348 1.05 2.348 2.433 0 1.384-1.03 2.434-2.348 2.434h-2.491v3.865l4.934 7.325h5.51v-.024z" fill="#FFF" fill-rule="nonzero"/>
</svg>
